public/avatar/shoe/190.svg

<svg xmlns:xlink="http://www.w3.org/1999/xlink" height="38.3" width="36.05" xmlns="http://www.w3.org/2000/svg"><use height="19.2" transform="translate(7.95 10.6)" width="23.8" xlink:href="#a"/><defs><g id="a" fill-rule="evenodd"><path d="m4.95 10.35-5.65 3.4q-3 1.85-9.65.85l-3.35-.75q-1-.35-1.5-.85-.65-.65-.65-2.6.25-3.45 1.5-3.45.45 0 .65.65 4 2.1 6.8 2.1 2.6.05 5.9-1.15L4.75 6.5q1.9-.45 2.15-1.35l.2-1.65.35.4q.4.65.4 1.4.2 1.3-.1 2.5-.2.95-2.8 2.55" fill="#020200" transform="translate(15.85 4.25)"/><path d="M4.35 10.45-1.1 13.9q-2.75 1.55-10.55.2-3.3-.5-3.55-1.65-.6-2.1 0-3.25L7.1 4.4q1.2 3.65-2.75 6.05" fill="#020200" transform="translate(15.85 4.25)"/><path d="M4.4 9.8q-1.85 1.05-5.45 3.45-2.85 1.55-10.5.2-3.35-.5-3.65-1.65-.55-2.2.05-3.25l22.3-4.8Q8.4 7.4 4.4 9.8" fill="#f9f4f4" transform="translate(15.85 4.25)"/><path d="m4.3 8.75-5.65 3.35q-2.75 1.6-10.35.25-2.95-.55-3.3-1.75-.6-2.3 0-3.4L6.25 3.05q2.8 3.55-1.95 5.7" fill="#c60537" transform="translate(15.85 4.25)"/><path d="M-3.5 8.75q-3.2 1.1-7.1-.55-1.75-.85-.9-3.6l7.4-5.7q1.5.75 6.25 1.4.95.15 4.15-.9 1.5 5 .45 6-1.15 1.15-2.6.85Q1.8 5.7.9 6.55q-.75.8-4.4 2.2" fill="#fff" transform="translate(15.85 4.25)"/><path d="M6.65-2.2q.45.95.45 6.8l-.3 1.05Q6.25 6.8 4.15 7.6L-1.3 11l-6.95.5q-5.65-.25-6.75-2.1-.55-3.05.35-4.2l4-2.55q5.4-3.5 5.6-4.4Q-5-2.4-.2-.6q3.85.8 4.4-1.3-.05-2.25.5-2.35Q6-4.35 6.65-2.2M2.2 5.15q.25.75.55.75.25.05.35-.65l-.9-.1-.5-1.95Q1.05.5.6.45l-3.7-.7q-.75 0-1.6.95-.9 1.05-.3 1.9.65.85 3.55 2.4l1.5.85q.8-.8 2.15-.7M-9.6 4.2Q-12.3 6.55-7.95 8l6.6-.65.85-.85-9.1-2.3" fill="#020200" transform="translate(15.85 4.25)"/></g></defs></svg>

<?xml version="1.0" encoding="UTF-8" standalone="no"?>
<svg xmlns:xlink="http://www.w3.org/1999/xlink" height="38.3px" width="36.05px" xmlns="http://www.w3.org/2000/svg">
  <g transform="matrix(1.0, 0.0, 0.0, 1.0, 23.8, 14.85)">
    <use height="19.2" transform="matrix(1.0, 0.0, 0.0, 1.0, -15.85, -4.25)" width="23.8" xlink:href="#shape0"/>
  </g>
  <defs>
    <g id="shape0" transform="matrix(1.0, 0.0, 0.0, 1.0, 15.85, 4.25)">
      <path d="M4.95 10.35 L-0.7 13.75 Q-3.7 15.6 -10.35 14.6 L-13.7 13.85 Q-14.7 13.5 -15.2 13.0 -15.85 12.35 -15.85 10.4 -15.6 6.95 -14.35 6.95 -13.9 6.95 -13.7 7.6 -9.7 9.7 -6.9 9.7 -4.3 9.75 -1.0 8.55 L4.75 6.5 Q6.65 6.05 6.9 5.15 L7.1 3.5 7.45 3.9 Q7.85 4.55 7.85 5.3 8.05 6.6 7.75 7.8 7.55 8.75 4.95 10.35" fill="#020200" fill-rule="evenodd" stroke="none"/>
      <path d="M4.35 10.45 L-1.1 13.9 Q-3.85 15.45 -11.65 14.1 -14.95 13.6 -15.2 12.45 -15.8 10.35 -15.2 9.2 L7.1 4.4 Q8.3 8.05 4.35 10.45" fill="#020200" fill-rule="evenodd" stroke="none"/>
      <path d="M4.4 9.8 Q2.55 10.85 -1.05 13.25 -3.9 14.8 -11.55 13.45 -14.9 12.95 -15.2 11.8 -15.75 9.6 -15.15 8.55 L7.15 3.75 Q8.4 7.4 4.4 9.8" fill="#f9f4f4" fill-rule="evenodd" stroke="none"/>
      <path d="M4.3 8.75 L-1.35 12.1 Q-4.1 13.7 -11.7 12.35 -14.65 11.8 -15.0 10.6 -15.6 8.3 -15.0 7.2 L6.25 3.05 Q9.05 6.6 4.3 8.75" fill="#c60537" fill-rule="evenodd" stroke="none"/>
      <path d="M-3.5 8.75 Q-6.7 9.85 -10.6 8.2 -12.35 7.35 -11.5 4.6 L-4.1 -1.1 Q-2.6 -0.35 2.15 0.3 3.1 0.45 6.3 -0.6 7.8 4.4 6.75 5.4 5.6 6.55 4.15 6.25 1.8 5.7 0.9 6.55 0.15 7.35 -3.5 8.75" fill="#ffffff" fill-rule="evenodd" stroke="none"/>
      <path d="M6.65 -2.2 Q7.1 -1.25 7.1 4.6 L6.8 5.65 Q6.25 6.8 4.15 7.6 L-1.3 11.0 -8.25 11.5 Q-13.9 11.25 -15.0 9.4 -15.55 6.35 -14.65 5.2 L-10.65 2.65 Q-5.25 -0.85 -5.05 -1.75 -5.0 -2.4 -0.2 -0.6 3.65 0.2 4.2 -1.9 4.15 -4.15 4.7 -4.25 6.0 -4.35 6.65 -2.2 M2.2 5.15 Q2.45 5.9 2.75 5.9 3.0 5.95 3.1 5.25 L2.2 5.15 1.7 3.2 Q1.05 0.5 0.6 0.45 L-3.1 -0.25 Q-3.85 -0.25 -4.7 0.7 -5.6 1.75 -5.0 2.6 -4.35 3.45 -1.45 5.0 L0.05 5.85 Q0.85 5.05 2.2 5.15 M-9.6 4.2 Q-12.3 6.55 -7.95 8.0 L-1.35 7.35 -0.5 6.5 -9.6 4.2" fill="#020200" fill-rule="evenodd" stroke="none"/>
    </g>
  </defs>
</svg>
